public/images/icons/liquidity.svg

<svg fill="none" height="22" viewBox="0 0 22 22" width="22" xmlns="http://www.w3.org/2000/svg" xmlns:xlink="http://www.w3.org/1999/xlink"><linearGradient id="a"><stop offset="0" stop-color="#ffe7e0"/><stop offset=".34375" stop-color="#f8dbf4"/><stop offset=".6875" stop-color="#c4ddff"/><stop offset="1" stop-color="#cae9ff"/></linearGradient><linearGradient id="b" gradientUnits="userSpaceOnUse" x1="7" x2="14.0668" xlink:href="#a" y1="10.5" y2="7.93197"/><linearGradient id="c" gradientUnits="userSpaceOnUse" x1="6" x2="14.8005" xlink:href="#a" y1="10.233" y2="6.98391"/><linearGradient id="d" gradientUnits="userSpaceOnUse" x1="0" x2="12.7239" xlink:href="#a" y1="6.60758" y2="-3.01427"/><linearGradient id="e" gradientUnits="userSpaceOnUse" x1="2" x2="14.8223" xlink:href="#a" y1="15.3216" y2="5.72812"/><path d="m11 16c-2.243 0-4-1.721-4-3.918 0-1.832 2.168-4.951 4-7.082 1.832 2.131 4 5.25 4 7.082 0 2.197-1.757 3.918-4 3.918z" fill="url(#b)" opacity=".3"/><g clip-rule="evenodd" fill-rule="evenodd"><path d="m11 3.466.7583.88207c.9412 1.09481 1.9772 2.45255 2.7844 3.78761.4037.66759.7607 1.34672 1.0192 1.99712.2541.6392.4381 1.3119.4381 1.9492 0 2.7687-2.2243 4.918-5 4.918-2.77566 0-5-2.1493-5-4.918 0-.6373.18404-1.31.4381-1.9492.25854-.6504.61551-1.32953 1.01917-1.99712.80723-1.33506 1.84323-2.6928 2.78443-3.78761zm-2.70335 7.4056c-.20969.5275-.29665.9316-.29665 1.2104 0 1.6253 1.2897 2.918 3 2.918s3-1.2927 3-2.918c0-.2788-.087-.6829-.2966-1.2104-.2053-.5163-.5048-1.0936-.8721-1.7011-.5292-.87517-1.1773-1.77736-1.8313-2.60079-.654.82343-1.3021 1.72562-1.8313 2.60079-.36731.6075-.66684 1.1848-.87205 1.7011z" fill="url(#c)"/><path d="m2 11c0-4.97072 4.02928-9 9-9 2.1436 0 4.1117.74855 5.6577 2h-1.6577v2h5v-5h-2v1.51435c-1.9011-1.56996-4.3404-2.51435-7-2.51435-6.07528 0-11 4.92472-11 11 0 .7578.07689 1.4988.22324 2.2152l1.95952-.4004c-.11965-.5856-.18276-1.1926-.18276-1.8148z" fill="url(#d)"/><path d="m19.7931 9.0708c.1356.6196.2069 1.2649.2069 1.9292 0 4.9707-4.0293 9-9 9-2.14275 0-4.11088-.7486-5.65715-2h1.65715v-2h-5v5h2v-1.5148c1.90133 1.5701 4.34058 2.5148 7 2.5148 6.0753 0 11-4.9247 11-11 0-.8078-.0867-1.5965-.2531-2.35681z" fill="url(#e)"/></g></svg>

<svg width="22" height="22" viewBox="0 0 22 22" fill="none" xmlns="http://www.w3.org/2000/svg">
<path opacity="0.3" d="M11 16C8.757 16 7 14.279 7 12.082C7 10.25 9.168 7.131 11 5C12.832 7.131 15 10.25 15 12.082C15 14.279 13.243 16 11 16Z" fill="url(#paint0_linear_25_489)"/>
<path fill-rule="evenodd" clip-rule="evenodd" d="M11 3.466L11.7583 4.34807C12.6995 5.44288 13.7355 6.80062 14.5427 8.13568C14.9464 8.80327 15.3034 9.4824 15.5619 10.1328C15.816 10.772 16 11.4447 16 12.082C16 14.8507 13.7757 17 11 17C8.22434 17 6 14.8507 6 12.082C6 11.4447 6.18404 10.772 6.4381 10.1328C6.69664 9.4824 7.05361 8.80327 7.45727 8.13568C8.2645 6.80062 9.3005 5.44288 10.2417 4.34807L11 3.466ZM8.29665 10.8716C8.08696 11.3991 8 11.8032 8 12.082C8 13.7073 9.2897 15 11 15C12.7103 15 14 13.7073 14 12.082C14 11.8032 13.913 11.3991 13.7034 10.8716C13.4981 10.3553 13.1986 9.778 12.8313 9.1705C12.3021 8.29533 11.654 7.39314 11 6.56971C10.346 7.39314 9.6979 8.29533 9.1687 9.1705C8.80139 9.778 8.50186 10.3553 8.29665 10.8716Z" fill="url(#paint1_linear_25_489)"/>
<path fill-rule="evenodd" clip-rule="evenodd" d="M2 11C2 6.02928 6.02928 2 11 2C13.1436 2 15.1117 2.74855 16.6577 4H15V6H20V1H18V2.51435C16.0989 0.94439 13.6596 0 11 0C4.92472 0 0 4.92472 0 11C0 11.7578 0.07689 12.4988 0.22324 13.2152L2.18276 12.8148C2.06311 12.2292 2 11.6222 2 11Z" fill="url(#paint2_linear_25_489)"/>
<path fill-rule="evenodd" clip-rule="evenodd" d="M19.7931 9.0708C19.9287 9.6904 20 10.3357 20 11C20 15.9707 15.9707 20 11 20C8.85725 20 6.88912 19.2514 5.34285 18H7V16H2V21H4V19.4852C5.90133 21.0553 8.34058 22 11 22C17.0753 22 22 17.0753 22 11C22 10.1922 21.9133 9.4035 21.7469 8.64319L19.7931 9.0708Z" fill="url(#paint3_linear_25_489)"/>
<defs>
<linearGradient id="paint0_linear_25_489" x1="7" y1="10.5" x2="14.0668" y2="7.93197" gradientUnits="userSpaceOnUse">
<stop stop-color="#FFE7E0"/>
<stop offset="0.34375" stop-color="#F8DBF4"/>
<stop offset="0.6875" stop-color="#C4DDFF"/>
<stop offset="1" stop-color="#CAE9FF"/>
</linearGradient>
<linearGradient id="paint1_linear_25_489" x1="6" y1="10.233" x2="14.8005" y2="6.98391" gradientUnits="userSpaceOnUse">
<stop stop-color="#FFE7E0"/>
<stop offset="0.34375" stop-color="#F8DBF4"/>
<stop offset="0.6875" stop-color="#C4DDFF"/>
<stop offset="1" stop-color="#CAE9FF"/>
</linearGradient>
<linearGradient id="paint2_linear_25_489" x1="1.71794e-08" y1="6.60758" x2="12.7239" y2="-3.01427" gradientUnits="userSpaceOnUse">
<stop stop-color="#FFE7E0"/>
<stop offset="0.34375" stop-color="#F8DBF4"/>
<stop offset="0.6875" stop-color="#C4DDFF"/>
<stop offset="1" stop-color="#CAE9FF"/>
</linearGradient>
<linearGradient id="paint3_linear_25_489" x1="2" y1="15.3216" x2="14.8223" y2="5.72812" gradientUnits="userSpaceOnUse">
<stop stop-color="#FFE7E0"/>
<stop offset="0.34375" stop-color="#F8DBF4"/>
<stop offset="0.6875" stop-color="#C4DDFF"/>
<stop offset="1" stop-color="#CAE9FF"/>
</linearGradient>
</defs>
</svg>
